packages/icons/svg/24/Images.svg

<svg width="24" height="24" viewBox="0 0 24 24" fill="none" xmlns="http://www.w3.org/2000/svg">
<path fill-rule="evenodd" clip-rule="evenodd" d="M2 5C2 3.89542 2.89545 3 4 3H11C12.1046 3 13 3.89542 13 5V8C11.7335 8 10.6502 8.78494 10.2101 9.89493L9 10.5L6 9L4 9.99341V13H10V15H4C2.89545 15 2 14.1046 2 13V5ZM9.5 5C8.67157 5 8 5.67157 8 6.5C8 7.32843 8.67157 8 9.5 8C10.3284 8 11 7.32843 11 6.5C11 5.67157 10.3284 5 9.5 5Z" fill="#858585"/>
<path fill-rule="evenodd" clip-rule="evenodd" d="M13 21C11.8954 21 11 20.1054 11 18.9999V11.0001C11 9.89548 11.8955 9 13 9H20C21.1046 9 22 9.89459 22 11.0001V18.9999C22 20.1045 21.1045 21 20 21H13ZM13 15.9934L15 15L18 16.5L20 15.5V19H13V15.9934ZM18.5 11C17.6716 11 17 11.6716 17 12.5C17 13.3284 17.6716 14 18.5 14C19.3284 14 20 13.3284 20 12.5C20 11.6716 19.3284 11 18.5 11Z" fill="#858585"/>
</svg>

<svg width="24" height="24" fill="none" xmlns="http://www.w3.org/2000/svg" viewBox="0 0 24 24"><path fill-rule="evenodd" clip-rule="evenodd" d="M2 5a2 2 0 012-2h7a2 2 0 012 2v3c-1.267 0-2.35.785-2.79 1.895L9 10.5 6 9l-2 .993V13h6v2H4a2 2 0 01-2-2V5zm7.5 0a1.5 1.5 0 100 3 1.5 1.5 0 000-3z" fill="currentColor"></path><path fill-rule="evenodd" clip-rule="evenodd" d="M13 21a2 2 0 01-2-2v-8a2 2 0 012-2h7a2 2 0 012 2v8a2 2 0 01-2 2h-7zm0-5.007L15 15l3 1.5 2-1V19h-7v-3.007zM18.5 11a1.5 1.5 0 100 3 1.5 1.5 0 000-3z" fill="currentColor"></path></svg>
